X: 10200
T: Diplodocus, The
R: jig
M: 6/8
K: Dmajor
|:B|cAA edB|cAA ABc|dff ~g3|aee fed|
cAA A2G|EAA AGE|DEF ~G2A|1 BAA A2:|2 BAA Acd||
efe e2d|cAB AGE|~G3 GEF|GAG FED|
efe e2d|cAB AGE|DEF ~G2A|BAA A3|
efe e2d|cAB AGE|!slide!g3 gef|gag fed|
efd e2d|cAB AGE|DEF ~G2A|BAA Afg|
|:aAA Aaf|~g3 efg|fdd def|~g3 efg|
a2A Aaf|~g3 efg|fed efd|1 BAA Afg:|2 BAA A2||

